!!!COM: Music21
!!!OTL: O Favorito
!!!OMV: pezas_pasodobles_o-favorito_o-favorito-partitura.musicxml
**kern
*part1
*staff1
*I"gaita
*I'g.
*clefG^2
*
*k[]
*M2/4
=1
!LO:TX:a:t=Allegretto
*MM120
!LO:TX:a:t=[quarter]=120
4ee
4ff
=
8gg
8r
8r
16ffLL
16eeJJ
=
8ddL
8ddJ
8eeL
8eeJ
=
4.ff
16eeLL
16ddJJ
=
8ccL
8ccJ
8ffL
8eeJ
=
8eeL
16ddL
16ccJJ
[4dd
=
8ddL]
8bJ
8eeL
8ddJ
!!linebreak:original
=
[4cc
16ccLL]
16b
16cc
16ddJJ
!!linebreak:original
=
4ee
4ff
=
8gg
8r
8r
16ffLL
16eeJJ
=
8ddL
8ddJ
8eeL
8eeJ
=
4.ff
16eeLL
16ddJJ
=
8ccL
8ccJ
8ffL
8eeJ
=
8eeL
16ddL
16ccJJ
[4dd
=
8ddL]
8bJ
8eeL
8ddJ
!!linebreak:original
=||
4cc
8eeL
8ggJ
=
4cc
8eeL
8ggJ
=
4aa
4gg
!!linebreak:original
=
8.ffL
16eeJk
4dd
=
4b
8ddL
8ggJ
=
4b
8ddL
8ffJ
=
4gg
4ff
=
8.eeL
16ddJk
4cc
=
4cc
8eeL
8ggJ
=
4cc
8eeL
8ggJ
=
4aa
4gg
=
8.ffL
16eeJk
[4dd
!!pagebreak:original
=
8ddL]
8ffJ
8eeL
8ddJ
=
8ccL
8ddJ
[4ee
!!linebreak:original
=
8eeL]
8ddJ
8ccL
8bJ
=||
4cc
8eeL
8ggJ
=
4cc
8eeL
8ggJ
=
4aa
4gg
!!linebreak:original
=
8.ffL
16eeJk
4dd
=
4b
8ddL
8ggJ
=
4b
8ddL
8ffJ
=
4gg
4ff
=
8.eeL
16ddJk
4cc
=
4cc
8eeL
8ggJ
=
4cc
8eeL
8ggJ
=
4aa
4gg
=
8.ffL
16eeJk
[4dd
!!linebreak:original
=
8ddL]
8ffJ
8eeL
8ddJ
=
8ccL
8ddJ
[4ee
!!linebreak:original
=
8eeL]
8ddJ
8ccL
8bJ
=||
8cc
8r
4r
=
8ccL
16ddL
16eeJJ
16ffLL
16ee
16dd
16ccJJ
=
8bL
8ddJ
8gg
8r
=
4r
8ddL
16eeL
16ffJJ
=
16ggLL
16ff
16ee
16ddJJ
8ccL
8eeJ
!!linebreak:original
=
8cc
8r
4r
==
*-
!!!system-decoration: s1,s2
